X: 100404
T: WEST'S HORNPIPE
R: hornpipe, reel
B: K\"ohler's Violin Repository, v.3, 1885 p.262 #3
F: http://www.archive.org/details/klersviolinrepos03rugg
Z: 2012 John Chambers <jc:trillian.mit.edu>
M: C|
L: 1/8
K: D
((3uABc) |\
d2FG (AF)AF | d2FG A2FA | BAGF E2(ef) | gefd edcA |\
d2FG (AF)AF | d2FG A2FA | BAGF E2(eg) | fdec d2 :|
|: (uAd) |\
fdAd afdf | ecAc gece | fdAd afdf | edcB A2(Bc) |\
(dc)dB (cB)cA | (dc)dB (cB)cA | afge fdec | d2f2 d2 :|

%%sep 2 1 500

